common/src/main/resources/icons/mac/text.svg

<svg xmlns="http://www.w3.org/2000/svg" width="16" height="16" data-big="true" viewBox="0 0 24 24"><path fill="#64B5F6" d="M13 19a1 1 0 0 0 1 1h2v2h-2.5c-.55 0-1.5-.45-1.5-1 0 .55-.95 1-1.5 1H8v-2h2a1 1 0 0 0 1-1V5a1 1 0 0 0-1-1H8V2h2.5c.55 0 1.5.45 1.5 1 0-.55.95-1 1.5-1H16v2h-2a1 1 0 0 0-1 1z"/></svg>

<!--
  - The MIT License (MIT)
  -
  - Copyright (c) 2015-2024 Elior "Mallowigi" Boukhobza
  -
  - Permission is hereby granted, free of charge, to any person obtaining a copy
  - of this software and associated documentation files (the "Software"), to deal
  - in the Software without restriction, including without limitation the rights
  - to use, copy, modify, merge, publish, distribute, sublicense, and/or sell
  - copies of the Software, and to permit persons to whom the Software is
  - furnished to do so, subject to the following conditions:
  -
  - The above copyright notice and this permission notice shall be included in all
  - copies or substantial portions of the Software.
  -
  - THE SOFTWARE IS PROVIDED "AS IS", WITHOUT WARRANTY OF ANY KIND, EXPRESS OR
  - IMPLIED, INCLUDING BUT NOT LIMITED TO THE WARRANTIES OF MERCHANTABILITY,
  - FITNESS FOR A PARTICULAR PURPOSE AND NONINFRINGEMENT. IN NO EVENT SHALL THE
  - AUTHORS OR COPYRIGHT HOLDERS BE LIABLE FOR ANY CLAIM, DAMAGES OR OTHER
  - LIABILITY, WHETHER IN AN ACTION OF CONTRACT, TORT OR OTHERWISE, ARISING FROM,
  - OUT OF OR IN CONNECTION WITH THE SOFTWARE OR THE USE OR OTHER DEALINGS IN THE
  - SOFTWARE.
  -->

<svg data-big="true" xmlns="http://www.w3.org/2000/svg" viewBox="0 0 24 24" width="16px" height="16px">
  <path fill="#64B5F6"
        d="M13,19A1,1 0 0,0 14,20H16V22H13.5C12.95,22 12,21.55 12,21C12,21.55 11.05,22 10.5,22H8V20H10A1,1 0 0,0 11,19V5A1,1 0 0,0 10,4H8V2H10.5C11.05,2 12,2.45 12,3C12,2.45 12.95,2 13.5,2H16V4H14A1,1 0 0,0 13,5V19Z"/>
</svg>
